X:28
T:score121
L:1/16
Q:1/4=96
M:2/4
I:linebreak $
K:G
!p! (gabc' | d'4) (c'bag | f4) (gfed | .g2).g2 (agfg | a4) (abc'd' |$ !>!e'4) (d'c'ba | %6
 !>!.d'2).d'2 (c'bag | !>!.c'2).c'2 (bagf | g2) z2 z4 |] %9
